X:72
T:Captain Kelly   Reel    Allan's  #72  pg18
C:Trad/Anon
B:Allan's Irish Fiddler (pub. Mozart Allen,  Glascow) date unknown
Z:FROM ALLAN'S TO NOTEWORTHY, FROM NOTEWORTHY TO ABC, MIDI AND .TXT BY VINCE
BRENNAN Dec. 2002 (HTTP://WWW.SOSYOURMOM.COM)
I:abc2nwc
M:2/2
L:1/8
K:D
|:DFEF D2(dB)|AFDF E(B,B,2)|DFEF D2(dB)|AFEG (FD) D2|
DFEF D2(dB)|AFDF E(B,B,2)|DFEF D2(dB)|AFEG (F D) D||
c|d2(fd)edfd|BdAd BdAc|d2(fd)edfd|Bdce d2A2|
d2({e}dc) dfed|cAeA fAeA|decd BcAc|[1 (3(Bcd) (ce) dBAF:|[2 (3(Bcd) (ce) d2d2|]
